images/svg/linkedin-icon.svg

<svg width="25" height="24" viewBox="0 0 25 24" fill="none" xmlns="http://www.w3.org/2000/svg">
<g id="LinkedIn">
<path id="Shape" fill-rule="evenodd" clip-rule="evenodd" d="M5.5513 3.3042C4.41165 3.3042 3.48447 4.23017 3.48447 5.36833C3.48447 6.50724 4.41165 7.4338 5.5513 7.4338C6.68872 7.4338 7.61408 6.50724 7.61408 5.36833C7.61408 4.23017 6.68872 3.3042 5.5513 3.3042ZM3.76655 8.99818V20.4515H7.32916L7.33051 8.99818H3.76655ZM9.56465 8.99713V20.4503L13.1192 20.4517L13.1206 14.7845C13.1206 13.3298 13.3739 11.8429 15.2535 11.8429C17.1044 11.8429 17.1044 13.5976 17.1044 14.879V20.4503L20.6629 20.449V14.1689C20.6629 11.3348 20.1456 8.71224 16.3929 8.71224C14.6304 8.71224 13.4769 9.70851 13.0247 10.5618H12.9747L12.9747 8.99713H9.56465ZM22.4355 24H1.98187C1.00598 24 0.212036 23.223 0.212036 22.268V1.73068C0.212036 0.776376 1.00598 0 1.98187 0H22.4355C23.4151 0 24.212 0.776376 24.212 1.73068V22.268C24.212 23.223 23.4151 24 22.4355 24Z" fill="white"/>
</g>
</svg>

<svg xmlns="http://www.w3.org/2000/svg" width="25" height="24" fill="none"><path fill="#fff" fill-rule="evenodd" d="M5.551 3.304c-1.14 0-2.067.926-2.067 2.064 0 1.14.928 2.066 2.067 2.066a2.066 2.066 0 0 0 0-4.13ZM3.767 8.998v11.454h3.562l.002-11.454H3.767Zm5.798 0V20.45l3.554.002.002-5.668c0-1.454.253-2.941 2.133-2.941 1.85 0 1.85 1.755 1.85 3.036v5.571l3.559-.001v-6.28c0-2.834-.517-5.457-4.27-5.457-1.763 0-2.916.997-3.368 1.85h-.05V8.997h-3.41ZM22.435 24H1.983c-.976 0-1.77-.777-1.77-1.732V1.731C.212.776 1.006 0 1.982 0h20.454c.98 0 1.776.776 1.776 1.73v20.538c0 .955-.797 1.732-1.776 1.732Z" clip-rule="evenodd"/></svg>
